X:1
T: Lt. Ray's Quick Step
C:
R:Reel
Q: 232
K:C
M:4/4
L:1/8
|:G2|c3d e2 c2|A4 A2 a2|g2 e2 d2 c2|dc de d2 G2|
c3d e2 c2|A4 A2 a2|g2 e2 d2 e2|c6 g2|
c'3g a2 g2|c'3g a2 c'2|g2 e2 d2 c2|dc de d2 g2|
c'3g a2 g2|c'3g a2 c'2|g2 e2 d3e|c6:|
